X:858
T:Rolling Wave, The
S:Sessions, records
Z:Nigel Gatherer
L:1/8
M:6/8
K:D
FEF D3  | D2d cAG | FEF D3  | A2F GFE  |
FEF D3  | D2d cAG | FAF GBG | A2F GFE :|
D2d cAd | cAd cAG | F2d cAd | A2F GFE  |
D2d cAd | fed cAG | FAF GBG | A2F GFE :|
<end>
<start>
